src/qt/dogecash/res/img/ic-nav-privacy-hover.svg

<?xml version="1.0" encoding="UTF-8"?>
<svg width="24px" height="40px" viewBox="0 0 24 40" version="1.1" xmlns="http://www.w3.org/2000/svg" xmlns:xlink="http://www.w3.org/1999/xlink">
    <!-- Generator: Sketch 52.6 (67491) - http://www.bohemiancoding.com/sketch -->
    <title>Privacy</title>
    <desc>Created with Sketch.</desc>
    <g id="Privacy" stroke="none" stroke-width="1" fill="none" fill-rule="evenodd">
        <g id="Group" transform="translate(1.000000, 13.000000)" fill="#FFFFFF" fill-rule="nonzero">
            <path d="M20.025,10.116 L17.771,0.009 L11,1.156 L4.229,0 L1.975,10.116 L0,10.116 L0,12.116 L22,12.116 L22,10.116 L20.025,10.116 Z M5.771,2.294 L11,3.183 L16.229,2.283 L17.976,10.116 L4.024,10.116 L5.771,2.294 Z" id="Path_18869"></path>
            <path d="M12,16.116 L10,16.116 L10,14.116 L1,14.116 L1,17.854 C1.08087292,20.2726593 3.08016383,22.1830929 5.5,22.154 C7.77023475,22.0683766 9.65187105,20.366305 9.964,18.116 L12.036,18.116 C12.3490129,20.3655153 14.2304203,22.0665369 16.5,22.152 C18.9198362,22.1810929 20.9191271,20.2706593 21,17.852 L21,14.116 L12,14.116 L12,16.116 Z M8,17.854 C7.90893564,19.1676128 6.81676551,20.186691 5.5,20.186691 C4.18323449,20.186691 3.09106436,19.1676128 3,17.854 L3,16.116 L8,16.116 L8,17.854 Z M14,16.116 L19,16.116 L19,17.854 C18.9089356,19.1676128 17.8167655,20.186691 16.5,20.186691 C15.1832345,20.186691 14.0910644,19.1676128 14,17.854 L14,16.116 Z" id="Path_18870"></path>
        </g>
    </g>
</svg>

<svg id="ic-nav-privacy" xmlns="http://www.w3.org/2000/svg" width="24" height="45" viewBox="0 0 24 45">
  <rect id="Rectangle-Copy-4" width="24" height="45" fill="none"/>
  <g id="Group_422" data-name="Group 422" transform="translate(1 14)">
    <path id="Path_18869" d="M20.025,10.116,17.771.009,11,1.156,4.229,0,1.975,10.116H0v2H22v-2ZM5.771,2.294,11,3.183l5.229-.9,1.747,7.833H4.024Z" fill="#9ba2af"/>
    <path id="Path_18870" d="M12,16.116H10v-2H1v3.738a4.449,4.449,0,0,0,4.5,4.3,4.685,4.685,0,0,0,4.464-4.038h2.072A4.685,4.685,0,0,0,16.5,22.152a4.449,4.449,0,0,0,4.5-4.3V14.116H12ZM8,17.854a2.506,2.506,0,0,1-5,0V16.116H8Zm6-1.738h5v1.738a2.506,2.506,0,0,1-5,0Z" fill="#9ba2af"/>
  </g>
</svg>
